X: 3
T: the Double Rise
C: Phil Cunningham
S: printed copy of unknown origin from Concord Slow Scottish Session collection
F: http://ramshaw.info/slowjamtunes/PDF/Tunes_D/Daybrak.pdf
R: jig
M: C
L: 1/8
K: Amix
"^A"|: eAA gfe | faf def | gBB ded |\
[1,3 GdG BAA :|2,4 BAG A2B \
"^B"\
::   c2A cde |     f2d fga | gBB ded |
[1,3 GdG BAA :|2,4 BAG A2B \
"^C"\
::   AAA eAa |     AaA fAa | gBB ded | GdG BAA \
||   AAA eAa |     AaA fdb |
|    gBB ded |     BAG A2B \
"^D"\
::   cBA ecA |     fdA aAa | gBB ded |\
[1,3 GdG BAA :|2,4 BAG A2B :|
